static/assets/images/protocols/lendle-mono.svg

<svg width="311" height="350" viewBox="0 0 311 350" fill="none" xmlns="http://www.w3.org/2000/svg">
<path fill-rule="evenodd" clip-rule="evenodd" d="M69.1599 41.1129L138.138 0L276.458 82.2257L207.298 123.145L138.138 82.2257L69.1599 41.1129ZM241.787 307.959L310.947 267.04V184.814L241.787 225.927L172.809 267.04V349.071L241.787 307.959ZM103.649 225.927V307.959L172.809 349.071V267.04L103.649 225.927ZM276.458 164.258L207.298 205.37V123.145L276.458 82.2257V164.258ZM69.1599 164.258L138.138 123.145L69.1599 82.2257L0 123.145V287.596L69.1599 328.515V164.258Z" fill="black"/>
</svg>

<svg xmlns="http://www.w3.org/2000/svg" fill="none" viewBox="0 0 311 350"><path fill="#000" fill-rule="evenodd" d="M69.16 41.113 138.138 0l138.32 82.226-69.16 40.919-69.16-40.92zm172.627 266.846 69.16-40.919v-82.226l-69.16 41.113-68.978 41.113v82.031zm-138.138-82.032v82.032l69.16 41.112V267.04zm172.809-61.669-69.16 41.112v-82.225l69.16-40.92zm-207.298 0 68.978-41.113-68.978-40.92L0 123.146v164.451l69.16 40.919z" clip-rule="evenodd"/></svg>
